;FLAVOR:Marlin
;TIME:2229
;Filament used: 1.28012m
;Layer height: 0.1
;MINX:106.115
;MINY:100.207
;MINZ:0.3
;MAXX:128.884
;MAXY:134.795
;MAXZ:27.3
;Generated with Cura_SteamEngine 4.6.0-beta
M140 S60
M105
M190 S60
M104 S200
M105
M109 S200
M82 ;absolute extrusion mode
G28 ;Home
G1 Z15.0 F6000 ;Move the platform down 15mm
;Prime the extruder
G92 E0
G1 F200 E3
G92 E0
G92 E0
G92 E0
G1 F1500 E-6.5
;LAYER_COUNT:271
;LAYER:0
M107
;MESH:1.stl
G0 F3600 X108.728 Y119.709 Z0.3
;TYPE:WALL-INNER
G1 F1500 E0
G1 F1800 X108.878 Y119.516 E0.01219
G1 X108.896 Y119.492 E0.01369
G1 X108.918 Y119.546
G1 X108.948 Y119.624
G1 X109.144 Y120.138 E0.04114
G1 X109.472 Y120.585 E0.0688
G1 X109.783 Y121.074 E0.09771
G1 X110.239 Y121.551 E0.13063
G1 X110.788 Y121.653 E0.15849
G1 X111.344 Y121.406 E0.18884
G1 X111.741 Y121.045 E0.21561
G1 X112.009 Y120.513 E0.24533
G1 X112.113 Y119.761 E0.28321
G1 X112.155 Y119.049 E0.31879
G1 X112.168 Y118.447 E0.34883
G1 X112.165 Y117.824 E0.37991
G1 X112.197 Y117.235 E0.40934
G1 X112.253 Y116.644 E0.43896
G1 X112.298 Y116.064 E0.46798
G1 X112.271 Y115.552 E0.49356
G1 X112.07 Y114.888 E0.52817
G1 X111.809 Y114.424 E0.55473
G1 X111.417 Y114.074 E0.58095
G1 X110.861 Y113.988 E0.60902
G1 X110.54 Y114.006 E0.62506
G1 X110.091 Y113.96 E0.64758
G1 X109.674 Y113.822 E0.66949
G1 X109.331 Y113.616 E0.68945
G1 X109.073 Y113.341 E0.70827
G1 X108.936 Y113.119 E0.72128
G1 X108.841 Y112.823 E0.73679
G1 X108.809 Y112.377 E0.7591
G1 X108.848 Y111.934 E0.78129
G1 X108.936 Y111.475 E0.8046
G1 X109.055 Y111.002 E0.82894
G1 X109.21 Y110.523 E0.85405
G1 X109.656 Y109.531 E0.90832
G1 X109.906 Y109.118 E0.9324
G1 X110.19 Y108.694 E0.95786
G1 X110.339 Y108.49 E0.97047
G1 X110.653 Y108.687 E0.98896
G1 X111.214 Y108.666 E1.01697
G1 X111.541 Y108.356 E1.03945
G1 X111.715 Y108.191 E1.05141
G1 X111.844 Y108.392 E1.05872
G1 X111.845 Y108.393 E1.05879
G1 X112.06 Y108.728 E1.07865
G1 X112.689 Y108.798 E1.11022
G1 X112.935 Y108.651 E1.12452
G1 X112.971 Y108.63 E1.1266
G1 X112.994 Y108.714
G1 X113.011 Y108.777
G1 X113.114 Y109.301 E1.15324
G1 X113.183 Y109.837 E1.18021
G1 X113.246 Y110.378 E1.20738
G1 X113.324 Y110.938 E1.23559
G1 X113.476 Y111.475 E1.26343
G1 X113.894 Y111.906 E1.29338
G1 X114.476 Y112.078 E1.32366
G1 X115.219 Y112.103 E1.36075
G1 X115.788 Y112.071 E1.38918
G1 X116.323 Y111.978 E1.41627
G1 X116.869 Y111.866 E1.44408
G1 X117.341 Y111.798 E1.46787
G1 X117.751 Y111.818 E1.48835
G1 X118.313 Y111.926 E1.5169
G1 X118.871 Y112.041 E1.54533
G1 X119.443 Y112.108 E1.57406
G1 X120.05 Y112.102 E1.60435
G1 X120.712 Y112.025 E1.6376
G1 X121.271 Y111.679 E1.67039
G1 X121.529 Y111.181 E1.69838
G1 X121.698 Y110.031 E1.75637
G1 X121.765 Y109.418 E1.78713
G1 X121.862 Y108.901 E1.81337
G1 X121.895 Y108.742 E1.82147
G1 X121.921 Y108.624 E1.8275
G1 X122.002 Y108.674 E1.82855
G1 X122.222 Y108.811 E1.83777
G1 X122.851 Y108.68 E1.86983
G1 X123.052 Y108.381 E1.8878
G1 X123.18 Y108.19 E1.89927
G1 X123.35 Y108.344 E1.90638
G1 X123.661 Y108.624 E1.92726
G1 X124.189 Y108.695 E1.95384
G1 X124.553 Y108.497 E1.97451
G1 X124.585 Y108.53 E1.9768
G1 X124.851 Y108.924 E2.00052
G1 X125.137 Y109.357 E2.02641
G1 X125.351 Y109.781 E2.0501
G1 X125.569 Y110.262 E2.07645
G1 X125.744 Y110.709 E2.1004
G1 X125.901 Y111.245 E2.12827
G1 X126.006 Y111.72 E2.15254
G1 X126.073 Y112.221 E2.17775
G1 X126.067 Y112.691 E2.2012
G1 X125.99 Y113.031 E2.2186
G1 X125.817 Y113.34 E2.23626
G1 X125.544 Y113.622 E2.25584
G1 X125.274 Y113.798 E2.27192
G1 X124.856 Y113.948 E2.29408
G1 X124.405 Y114.004 E2.31675
G1 X123.816 Y113.994 E2.34614
G1 X123.27 Y114.198 E2.37522
G1 X122.893 Y114.706 E2.40678
G1 X122.669 Y115.377 E2.44208
G1 X122.591 Y115.919 E2.4694
G1 X122.627 Y116.548 E2.50083
G1 X122.73 Y117.606 E2.55386
G1 X122.736 Y118.159 E2.58145
G1 X122.725 Y118.826 E2.61473
G1 X122.753 Y119.366 E2.64171
G1 X122.79 Y119.937 E2.67026
G1 X122.904 Y120.544 E2.70107
G1 X123.123 Y121.019 E2.72716
G1 X123.599 Y121.436 E2.75874
G1 X124.193 Y121.681 E2.79079
G1 X124.715 Y121.489 E2.81854
G1 X125.096 Y121.087 E2.84617
G1 X125.428 Y120.569 E2.87687
G1 X125.781 Y120.089 E2.9066
G1 X125.956 Y119.602 E2.93241
G1 X125.998 Y119.486 E2.93857
G1 X126.144 Y119.669 E2.94432
G1 X126.791 Y119.701 E2.97664
G1 X127.057 Y119.535 E2.99228
G1 X127.082 Y119.519 E2.99377
G1 X127.108 Y119.604
G1 X127.114 Y119.624 E2.99402
G1 X127.117 Y119.641
G1 X127.2 Y120.099 E3.01724
G1 X127.704 Y120.565 E3.05148
G1 X127.907 Y120.694 E3.06348
G1 X127.935 Y121.072 E3.08239
G1 X127.956 Y121.528 E3.10517
G1 X127.904 Y122.013 E3.1295
G1 X127.815 Y122.476 E3.15303
G1 X127.693 Y123.038 E3.18172
G1 X127.58 Y123.507 E3.20578
G1 X127.44 Y123.987 E3.23073
G1 X127.271 Y124.477 E3.25659
G1 X127.056 Y125.029 E3.28614
G1 X126.864 Y125.458 E3.30959
G1 X126.609 Y125.976 E3.3384
G1 X126.366 Y126.387 E3.36222
G1 X126.069 Y126.806 E3.38784
G1 X125.679 Y127.264 E3.41785
G1 X125.303 Y127.638 E3.44431
G1 X124.962 Y127.942 E3.4671
G1 X124.611 Y128.212 E3.4892
G1 X124.184 Y128.441 E3.51337
G1 X123.807 Y128.563 E3.53314
G1 X123.421 Y128.592 E3.55245
G1 X123.116 Y128.544 E3.56785
G1 X122.83 Y128.404 E3.58374
G1 X122.411 Y128.071 E3.61044
G1 X122.008 Y127.79 E3.63495
G1 X121.403 Y127.719 E3.66534
G1 X120.855 Y127.926 E3.69457
G1 X120.393 Y128.117 E3.71951
G1 X119.934 Y128.229 E3.74308
G1 X119.346 Y128.3 E3.77263
G1 X118.809 Y128.341 E3.7995
G1 X117.669 Y128.375 E3.8564
G1 X117.14 Y128.373 E3.88279
G1 X115.831 Y128.321 E3.94815
G1 X115.387 Y128.283 E3.97038
G1 X114.899 Y128.212 E3.99498
G1 X114.492 Y128.116 E4.01585
G1 X114.045 Y127.919 E4.04022
G1 X113.472 Y127.727 E4.07037
G1 X113.005 Y127.744 E4.09368
G1 X112.527 Y128.033 E4.12155
G1 X112.144 Y128.35 E4.14635
G1 X111.827 Y128.527 E4.16446
G1 X111.581 Y128.587 E4.1771
G1 X111.191 Y128.581 E4.19656
G1 X110.749 Y128.461 E4.21941
G1 X110.345 Y128.255 E4.24203
G1 X109.962 Y127.969 E4.26588
G1 X109.588 Y127.65 E4.2904
G1 X109.201 Y127.259 E4.31785
G1 X108.863 Y126.863 E4.34382
G1 X108.562 Y126.438 E4.36981
G1 X108.29 Y125.978 E4.39647
G1 X108.042 Y125.485 E4.424
G1 X107.851 Y125.064 E4.44707
G1 X107.633 Y124.52 E4.4763
G1 X107.44 Y123.931 E4.50723
G1 X107.292 Y123.449 E4.53238
G1 X107.159 Y122.884 E4.56134
G1 X107.055 Y122.357 E4.58814
G1 X106.959 Y121.818 E4.61545
G1 X106.93 Y121.409 E4.63591
G1 X106.974 Y120.938 E4.65951
G1 X106.987 Y120.683 E4.67225
G1 X107.347 Y120.437 E4.694
G1 X107.676 Y120.093 E4.71775
G1 X107.791 Y119.619 E4.74208
G1 X107.816 Y119.52 E4.74718
G1 X108.081 Y119.689 E4.75723
G1 X108.728 Y119.709 E4.78953
G0 F3600 X108.536 Y119.303
;TYPE:WALL-OUTER
G1 F1800 X108.815 Y118.941 E4.81233
G1 X108.898 Y118.834 E4.81909
G1 X108.977 Y118.783 E4.82378
G1 X109.109 Y118.956 E4.83463
G1 X109.16 Y119.082 E4.84026
G1 X109.291 Y119.403 E4.85755
G1 X109.498 Y119.945 E4.8865
G1 X109.805 Y120.363 E4.91237
G1 X110.099 Y120.826 E4.93974
G1 X110.439 Y121.181 E4.96426
G1 X110.739 Y121.237 E4.97949
G1 X111.123 Y121.067 E5.00044
G1 X111.417 Y120.799 E5.02028
G1 X111.622 Y120.392 E5.04302
G1 X111.715 Y119.722 E5.07677
G1 X111.755 Y119.033 E5.1112
G1 X111.768 Y118.444 E5.14059
G1 X111.765 Y117.826 E5.17142
G1 X111.799 Y117.198 E5.2028
G1 X111.854 Y116.61 E5.23226
G1 X111.897 Y116.059 E5.25984
G1 X111.874 Y115.621 E5.28172
G1 X111.7 Y115.046 E5.31169
G1 X111.493 Y114.678 E5.33276
G1 X111.239 Y114.451 E5.34975
G1 X110.841 Y114.39 E5.36984
G1 X110.527 Y114.407 E5.38553
G1 X110.005 Y114.353 E5.41171
G1 X109.51 Y114.189 E5.43772
G1 X109.075 Y113.929 E5.46301
G1 X108.756 Y113.589 E5.48627
G1 X108.569 Y113.286 E5.50403
G1 X108.445 Y112.9 E5.52426
G1 X108.408 Y112.377 E5.55042
G1 X108.452 Y111.873 E5.57566
G1 X108.544 Y111.394 E5.59999
G1 X108.67 Y110.894 E5.62572
G1 X108.836 Y110.378 E5.65276
G1 X109.3 Y109.348 E5.70912
G1 X109.564 Y108.911 E5.73459
G1 X109.867 Y108.458 E5.76178
G1 X110.098 Y108.141 E5.78135
G1 X110.265 Y108.016 E5.79176
G1 X110.346 Y108.022 E5.79581
G1 X110.761 Y108.283 E5.82027
G1 X111.048 Y108.272 E5.8346
G1 X111.494 Y107.85 E5.86523
G1 X111.535 Y107.811 E5.86805
G1 X111.747 Y107.662 E5.88098
G1 X111.764 Y107.65 E5.88202
G1 X111.776 Y107.653 E5.88264
G1 X111.814 Y107.695 E5.88546
G1 X112.011 Y107.911 E5.90005
G1 X112.022 Y107.928 E5.90106
G1 X112.294 Y108.352 E5.92619
G1 X112.6 Y108.386 E5.94155
G1 X112.963 Y108.169 E5.96265
G1 X113.081 Y108.099 E5.96949
G1 X113.181 Y108.087 E5.97452
G1 X113.259 Y108.166 E5.98006
G1 X113.295 Y108.299 E5.98693
G1 X113.402 Y108.688 E6.00706
G1 X113.509 Y109.234 E6.03482
G1 X113.58 Y109.786 E6.06258
G1 X113.643 Y110.328 E6.08981
G1 X113.716 Y110.856 E6.1164
G1 X113.833 Y111.269 E6.13781
G1 X114.108 Y111.552 E6.1575
G1 X114.541 Y111.68 E6.18003
G1 X115.214 Y111.703 E6.21362
G1 X115.742 Y111.673 E6.24001
G1 X116.249 Y111.585 E6.26568
G1 X116.8 Y111.472 E6.29374
G1 X117.324 Y111.396 E6.32016
G1 X117.798 Y111.419 E6.34383
G1 X118.394 Y111.534 E6.37412
G1 X118.935 Y111.646 E6.40168
G1 X119.464 Y111.708 E6.42825
G1 X120.025 Y111.702 E6.45624
G1 X120.577 Y111.638 E6.48397
G1 X120.967 Y111.397 E6.50684
G1 X121.143 Y111.057 E6.52594
G1 X121.301 Y109.98 E6.58025
G1 X121.368 Y109.364 E6.61116
G1 X121.471 Y108.817 E6.63893
G1 X121.571 Y108.351 E6.66271
G1 X121.573 Y108.34 E6.66326
G1 X121.685 Y108.103 E6.67634
G1 X121.726 Y108.083 E6.67862
G1 X121.901 Y108.141 E6.68782
G1 X121.911 Y108.147 E6.6884
G1 X122.297 Y108.387 E6.71107
G1 X122.61 Y108.322 E6.72702
G1 X122.901 Y107.888 E6.75309
G1 X122.944 Y107.824 E6.75694
G1 X123.12 Y107.649 E6.76932
G1 X123.183 Y107.694 E6.77318
G1 X123.391 Y107.843 E6.78595
G1 X123.837 Y108.244 E6.81587
G1 X124.113 Y108.281 E6.82976
G1 X124.588 Y108.023 E6.85673
G1 X124.661 Y108.037 E6.86044
G1 X124.897 Y108.276 E6.8772
G1 X125.183 Y108.7 E6.90271
G1 X125.483 Y109.155 E6.9299
G1 X125.708 Y109.601 E6.95483
G1 X125.942 Y110.117 E6.98309
G1 X126.123 Y110.581 E7.00794
G1 X126.29 Y111.149 E7.03748
G1 X126.401 Y111.65 E7.06308
G1 X126.473 Y112.193 E7.09041
G1 X126.467 Y112.737 E7.11755
G1 X126.367 Y113.178 E7.14011
G1 X126.142 Y113.579 E7.16305
G1 X125.798 Y113.934 E7.18771
G1 X125.453 Y114.159 E7.20826
G1 X124.951 Y114.339 E7.23487
G1 X124.427 Y114.405 E7.26122
G1 X123.885 Y114.395 E7.28826
G1 X123.521 Y114.531 E7.30765
G1 X123.252 Y114.893 E7.33015
G1 X123.06 Y115.469 E7.36044
G1 X122.993 Y115.936 E7.38398
G1 X123.026 Y116.517 E7.41301
G1 X123.13 Y117.586 E7.46659
G1 X123.136 Y118.166 E7.49553
G1 X123.125 Y118.819 E7.52811
G1 X123.152 Y119.343 E7.55429
G1 X123.188 Y119.887 E7.58149
G1 X123.288 Y120.421 E7.6086
G1 X123.451 Y120.774 E7.62799
G1 X123.813 Y121.092 E7.65203
G1 X124.201 Y121.252 E7.67297
G1 X124.489 Y121.146 E7.68828
G1 X124.78 Y120.839 E7.70939
G1 X125.094 Y120.348 E7.73846
G1 X125.424 Y119.9 E7.76622
G1 X125.6 Y119.402 E7.79257
G1 X125.74 Y119.066 E7.81073
G1 X125.804 Y118.912 E7.81905
G1 X125.911 Y118.785 E7.82734
G1 X125.916 Y118.783 E7.82761
G1 X125.993 Y118.84 E7.83239
G1 X126.097 Y118.97 E7.83892
G1 X126.344 Y119.278 E7.85862
G1 X126.685 Y119.295 E7.87565
G1 X127.106 Y119.031 E7.90044
G1 X127.15 Y119.004 E7.90302
G1 X127.236 Y118.981 E7.90746
G1 X127.252 Y118.988 E7.90833
G1 X127.403 Y119.2 E7.92132
G1 X127.418 Y119.249 E7.92387
G1 X127.504 Y119.533 E7.93868
G1 X127.57 Y119.896 E7.95709
G1 X127.949 Y120.247 E7.98286
G1 X128.224 Y120.422 E7.99912
G1 X128.3 Y120.578 E8.00778
G1 X128.335 Y121.054 E8.03159
G1 X128.357 Y121.54 E8.05586
G1 X128.3 Y122.072 E8.08255
G1 X128.206 Y122.561 E8.1074
G1 X128.082 Y123.132 E8.13655
G1 X127.968 Y123.606 E8.16087
G1 X127.818 Y124.118 E8.18749
G1 X127.644 Y124.622 E8.21409
G1 X127.426 Y125.183 E8.24412
G1 X127.223 Y125.635 E8.26884
G1 X126.963 Y126.163 E8.2982
G1 X126.699 Y126.609 E8.32406
G1 X126.392 Y127.043 E8.35058
G1 X125.966 Y127.543 E8.38335
G1 X125.578 Y127.929 E8.41065
G1 X125.219 Y128.249 E8.43465
G1 X124.827 Y128.551 E8.45933
G1 X124.341 Y128.811 E8.48683
G1 X123.886 Y128.958 E8.51069
G1 X123.407 Y128.994 E8.53465
G1 X122.994 Y128.93 E8.5555
G1 X122.614 Y128.744 E8.57661
G1 X122.172 Y128.392 E8.6048
G1 X121.862 Y128.176 E8.62365
G1 X121.453 Y128.128 E8.6442
G1 X121.002 Y128.298 E8.66824
G1 X120.517 Y128.499 E8.69443
G1 X120.01 Y128.623 E8.72047
G1 X119.377 Y128.699 E8.75228
G1 X118.831 Y128.741 E8.7796
G1 X117.68 Y128.775 E8.83705
G1 X117.124 Y128.773 E8.86479
G1 X115.815 Y128.721 E8.93015
G1 X115.332 Y128.679 E8.95434
G1 X114.828 Y128.606 E8.97974
G1 X114.362 Y128.496 E9.00363
G1 X113.9 Y128.292 E9.02883
G1 X113.414 Y128.129 E9.0544
G1 X113.123 Y128.14 E9.06893
G1 X112.759 Y128.36 E9.09015
G1 X112.371 Y128.681 E9.11527
G1 X111.972 Y128.904 E9.13808
G1 X111.627 Y128.988 E9.15579
G1 X111.135 Y128.98 E9.18034
G1 X110.605 Y128.836 E9.20774
G1 X110.132 Y128.595 E9.23423
G1 X109.711 Y128.28 E9.26046
G1 X109.321 Y127.948 E9.28601
G1 X108.905 Y127.528 E9.3155
G1 X108.551 Y127.113 E9.34272
G1 X108.224 Y126.652 E9.37091
G1 X107.94 Y126.172 E9.39874
G1 X107.685 Y125.665 E9.42705
G1 X107.482 Y125.218 E9.45155
G1 X107.256 Y124.653 E9.48191
G1 X107.06 Y124.056 E9.51325
G1 X106.905 Y123.55 E9.53966
G1 X106.77 Y122.976 E9.56907
G1 X106.662 Y122.428 E9.59694
G1 X106.562 Y121.871 E9.62517
G1 X106.529 Y121.409 E9.64828
G1 X106.575 Y120.909 E9.67333
G1 X106.593 Y120.556 E9.69097
G1 X106.683 Y120.406 E9.69969
G1 X107.087 Y120.13 E9.7241
G1 X107.313 Y119.894 E9.74041
G1 X107.471 Y119.247 E9.77363
G1 X107.476 Y119.225 E9.77476
G1 X107.629 Y118.991 E9.78871
G1 X107.671 Y118.976 E9.79093
G1 X107.784 Y119.024 E9.79706
G1 X107.803 Y119.036 E9.79818
G1 X108.204 Y119.293 E9.82194
G1 X108.536 Y119.303 E9.83851
G0 F3600 X108.658 Y119.145
G0 X108.712 Y120.099
;TYPE:SKIN
G1 F1800 X108.799 Y120.327 E9.85069
G1 X109.15 Y120.805 E9.88027
G1 X109.475 Y121.316 E9.91049
G1 X110.044 Y121.912 E9.9516
G1 X110.835 Y122.059 E9.99173
G1 X111.56 Y121.737 E10.03131
G1 X112.057 Y121.285 E10.06483
G1 X112.387 Y120.63 E10.10142
G1 X112.501 Y119.8 E10.14322
G1 X112.545 Y119.065 E10.17995
G1 X112.558 Y118.451 E10.21059
G1 X112.555 Y117.845 E10.24082
G1 X112.587 Y117.256 E10.27025
G1 X112.641 Y116.677 E10.29927
G1 X112.688 Y116.068 E10.32974
G1 X112.658 Y115.484 E10.35891
G1 X112.431 Y114.734 E10.39801
G1 X112.117 Y114.176 E10.42995
G1 X111.591 Y113.706 E10.46514
G1 X110.88 Y113.596 E10.50104
G1 X110.546 Y113.614 E10.51772
G1 X110.173 Y113.576 E10.53643
G1 X109.837 Y113.465 E10.55408
G1 X109.58 Y113.311 E10.56903
G1 X109.383 Y113.101 E10.5834
G1 X109.291 Y112.953 E10.59209
G1 X109.227 Y112.75 E10.60271
G1 X109.2 Y112.378 E10.62132
G1 X109.233 Y111.996 E10.64045
G1 X109.317 Y111.56 E10.6626
G1 X109.43 Y111.109 E10.68579
G1 X109.575 Y110.659 E10.70938
G1 X110.001 Y109.713 E10.76114
G1 X110.234 Y109.328 E10.78359
G1 X110.444 Y109.016 E10.80236
G1 X110.547 Y109.081 E10.80843
G1 X111.376 Y109.05 E10.84982
G1 X111.642 Y108.798 E10.8681
G1 X111.832 Y109.095 E10.88569
G1 X112.696 Y109.191 E10.92906
G1 X112.73 Y109.364 E10.93786
G1 X112.774 Y109.706 E10.95506
G1 X112.86 Y110.427 E10.99129
G1 X112.942 Y111.018 E11.02106
G1 X113.127 Y111.676 E11.05516
G1 X113.685 Y112.251 E11.09513
G1 X114.413 Y112.466 E11.133
G1 X115.223 Y112.493 E11.17343
G1 X115.833 Y112.459 E11.20391
G1 X116.395 Y112.362 E11.23237
G1 X116.933 Y112.25 E11.25978
G1 X117.357 Y112.19 E11.28115
G1 X117.707 Y112.207 E11.29863
G1 X118.237 Y112.309 E11.32556
G1 X118.809 Y112.427 E11.3547
G1 X119.422 Y112.498 E11.38548
G1 X120.075 Y112.492 E11.41806
G1 X120.843 Y112.403 E11.45663
G1 X121.568 Y111.954 E11.49918
G1 X121.905 Y111.302 E11.5358
G1 X122.084 Y110.08 E11.59741
G1 X122.149 Y109.49 E11.62703
G1 X122.201 Y109.213 E11.64109
G1 X123.087 Y109.029 E11.68623
G1 X123.253 Y108.781 E11.70112
G1 X123.489 Y108.994 E11.71698
G1 X124.263 Y109.099 E11.75595
G1 X124.436 Y109.005 E11.76577
G1 X124.526 Y109.138 E11.77379
G1 X124.797 Y109.551 E11.79843
G1 X125.002 Y109.957 E11.82112
G1 X125.21 Y110.414 E11.84617
G1 X125.377 Y110.841 E11.86905
G1 X125.523 Y111.342 E11.89508
G1 X125.623 Y111.794 E11.91818
G1 X125.683 Y112.241 E11.94068
G1 X125.677 Y112.647 E11.96093
G1 X125.623 Y112.886 E11.97316
G1 X125.499 Y113.109 E11.98589
G1 X125.296 Y113.317 E12.00039
G1 X125.098 Y113.447 E12.01221
G1 X124.765 Y113.567 E12.02986
G1 X124.385 Y113.614 E12.04897
G1 X123.749 Y113.602 E12.0807
